!!!!SEGMENT: pl-kk--kk-i-70--001-001_anonim--missa-5ta-kyrie.krn
!!!cenid: 17xx:2293
!!!COM: Anonim
!!!COM-rismID: pe30004985
!!!CDT:
!!!CNT:
!!!OPR: Missa 5ta
!!!OTL: Kyrie
!!!OMV: 001
!!!PDT:
!!!AGN: Sacred; Mass
!!!SMS-siglum: PL-Kk
!!!SMS-shelfmark: Kk.I.70
!!!SMS-shelfwork: 001-001 M
!!!SMS-variant:
!!!SMS-altvar:
!!!NIFC-rismSourceID: 1001154791
!!!NIFC-islandoraID: pl-kk:15771
!!!URL-pdf-islandora: https://repozytorium.nifc.pl/islandora/object/pl-kk%3A15771/datastream/PDF/view
!!!URL-scan:
!!!ONB-nifc: UWAGA: w zbiorze Msza 5ta i 6ta. Części Mszy: 1. Kyrie, 2. Et in terra, 3. Sanctus, 4. Agnus Dei
!!!AIN: 1 alto 1 empty 1 tenor 1 vox
!!!key:
**kern	**text	**dynam	**kern	**text	**dynam	**kern	**text	**dynam	**kern	**text	**dynam
*part4	*part4	*part4	*part3	*part3	*part3	*part2	*part2	*part2	*part1	*part1	*part1
*staff4	*staff4	*	*staff3	*staff3	*	*staff2	*staff2	*	*staff1	*staff1	*
*Iempty	*	*	*Itenor	*	*	*Ialto	*	*	*Ivox	*	*
*I"Baſso	*	*	*I"Tenore	*	*	*I"Alto.	*	*	*I"Canto	*	*
*I'B	*	*	*I'T	*	*	*I'A	*	*	*I'S	*	*
*clefF4	*	*	*clefC4	*	*	*clefC3	*	*	*clefC1	*	*
*k[]	*	*	*k[]	*	*	*k[]	*	*	*k[]	*	*
*C:	*	*	*C:	*	*	*C:	*	*	*C:	*	*
*M2/2	*	*	*M2/2	*	*	*M2/2	*	*	*M2/2	*	*
*met(c|)	*	*	*met(c|)	*	*	*met(c|)	*	*	*met(c|)	*	*
*2\right	*	*	*2\right	*	*	*2\right	*	*	*2\right	*	*
=1	=1	=1	=1	=1	=1	=1	=1	=1	=1	=1	=1
!	!	!	!	!	!	!	!	!	!LO:TX:t=P:problem=2\right&colon; global	!	!
!LO:TX:a:t=Moderato	!	!	!LO:TX:a:t=Moderato	!	!	!LO:TX:a:t=Modto	!	!	!LO:TX:a:t=Moderato	!	!
4.C/	Ky-	.	4.e\	Ky-	.	4.c/	Ky-	.	4.g\	Ky-	.
8C/	-ri-	.	8e\	-ri-	.	8G/	-ri-	.	8cc\	-ri-	.
4C/	-e	.	4.e\	-e	.	4.G/	-e	.	4cc\	-e	.
4C/	e-	.	.	.	.	.	.	.	4cc\	e-	.
.	.	.	8G/	e-	.	8e\	e-	.	.	.	.
=2	=2	=2	=2	=2	=2	=2	=2	=2	=2	=2	=2
4G\	-lei-	.	8G/L	-lei-	.	8e\L	-lei-	.	8cc\L	-lei-	.
.	.	.	8F/	.	.	8d\	.	.	8g\J	.	.
4GG/	.	.	8E/	.	.	8c\	.	.	4g\	.	.
.	.	.	8D/J	.	.	8B\J	.	.	.	.	.
8C/	-son	.	4E/	-son	.	4c\	-son	.	8g\	-son	.
8C/	e-	.	.	.	.	.	.	.	8e/	e-	.
8E/	-lei-	.	4r	.	.	4r	.	.	8g\	-lei-	.
8G\	-son	.	.	.	.	.	.	.	8cc\	-son	.
=3	=3	=3	=3	=3	=3	=3	=3	=3	=3	=3	=3
4.c\	Ky-	.	4.c\	Ky-	.	4.e\	Ky-	.	4.g/	Ky-	.
8C/	-ri-	.	8G\	-ri-	.	8c\	-ri-	.	8e/	-ri-	.
4C/	-e	.	4.G\	-e	.	4.c\	-e	.	4.e/	-e	.
4C/	e-	.	.	.	.	.	.	.	.	.	.
.	.	.	8e\	e-	.	8g\	e-	.	8cc\	e-	.
=4	=4	=4	=4	=4	=4	=4	=4	=4	=4	=4	=4
4G\	-lei-	.	8e\L	-lei-	.	8g\L	-lei-	.	8cc\L	-lei-	.
.	.	.	8d\	.	.	8f\	.	.	8b\J	.	.
4GG/	.	.	8c\	.	.	8e\	.	.	4g\	.	.
.	.	.	8B\J	.	.	8d\J	.	.	.	.	.
8C/	-son	.	4c\	-son	.	4e\	-son	.	8g\	-son	.
8c\	e-	.	.	.	.	.	.	.	8ee\	e-	.
8G\	-lei-	.	4r	.	.	4r	.	.	8cc\	-lei-	.
8E\	-son	.	.	.	.	.	.	.	8g\	-son	.
=5	=5	=5	=5	=5	=5	=5	=5	=5	=5	=5	=5
!LO:LB:g=original	!	!LO:DY:a:t=pia	!	!	!LO:DY:a:t=pia	!	!	!LO:DY:a:t=p	!LO:LB:g=original	!	!LO:DY:a
4.C/	Ky-	p	4.c\	Ky-	p	4.e\	Ky-	p	4.g\	Ky-	p
8BB/	-ri-	.	8d\	-ri-	.	8f\	-ri-	.	8g\	-ri-	.
4C/	-e	.	8e\L	-e	.	8g\L	-e	.	4g\	-e	.
.	.	.	8c\J	.	.	8e\J	.	.	.	.	.
4C/	e-	.	8f\L	e-	.	8a\L	e-	.	4cc\	e-	.
.	.	.	8e\J	.	.	8g\J	.	.	.	.	.
=6	=6	=6	=6	=6	=6	=6	=6	=6	=6	=6	=6
!	!	!	!LO:LB:g=original	!	!	!LO:LB:g=original	!	!	!	!	!
4G\	-lei-	.	8e\L	-lei-	.	(8g\L	-lei-	.	8cc\L	-lei-	.
.	.	.	8d\	.	.	8f\)	.	.	8b\J	.	.
4GG/	.	.	8d\	.	.	(8f\	.	.	8b\L	.	.
.	.	.	8c\J	.	.	8e\J)	.	.	8g\J	.	.
4GG/	-son	.	4d\	-son	.	4f\	-son	.	4b\	-son	.
4r	.	.	4r	.	.	4r	.	.	4r	.	.
=7	=7	=7	=7	=7	=7	=7	=7	=7	=7	=7	=7
2r	.	.	4.B\	Ky-	.	4.d\	Ky-	.	4.g\	Ky-	.
.	.	.	8c\	-ri-	.	8e\	-ri-	.	8g\	-ri-	.
4r	.	.	8d\L	-e	.	8f\L	-e	.	4g\	-e	.
.	.	.	8B\J	.	.	8d\J	.	.	.	.	.
8r	.	.	8e\L	e-	.	(8g\L	e-	.	4g\	e-	.
8G\	e-	.	8d\J	.	.	8f\J)	.	.	.	.	.
=8	=8	=8	=8	=8	=8	=8	=8	=8	=8	=8	=8
2G\	-lei-	.	8d\L	-lei-	.	8f\L	-lei-	.	2g\	-lei-	.
.	.	.	8c\J	.	.	8e\	.	.	.	.	.
.	.	.	8c\L	.	.	8e\	.	.	.	.	.
.	.	.	8B\J	.	.	8d\J	.	.	.	.	.
4C/	-son	.	4c\	-son	.	4e\	-son	.	4g\	-son	.
8r	.	.	8r	.	.	8r	.	.	8r	.	.
!	!	!LO:DY:a:t=for	!	!	!LO:DY:a:t=for	!	!	!LO:DY:a:t=fo	!	!	!LO:DY:a:t=fo
8GG/	e-	f	8B\	e-	f	8d\	e-	f	8g\	e-	f
=9	=9	=9	=9	=9	=9	=9	=9	=9	=9	=9	=9
.	.	.	8qqd/	.	.	8qqf/	.	.	.	.	.
2C/	-lei-	.	4c\	-lei-	.	4e\	-lei-	.	2g\	-lei-	.
.	.	.	8B\L	.	.	8d\L	.	.	.	.	.
.	.	.	8c\J	.	.	8e\J	.	.	.	.	.
4F\	.	.	8f\L	.	.	8a\L	.	.	2a\	.	.
.	.	.	8e\	.	.	8g\	.	.	.	.	.
4F#X\	.	.	8d\	.	.	8f\	.	.	.	.	.
.	.	.	8c\J	.	.	8e\J	.	.	.	.	.
=10	=10	=10	=10	=10	=10	=10	=10	=10	=10	=10	=10
.	.	.	8qqc/	.	.	8qqe/	.	.	.	.	.
2G\	-son	.	2B\	-son	.	2d\	-son	.	2g\	-son	.
2r	.	.	2r	.	.	2r	.	.	2r	.	.
=11	=11	=11	=11	=11	=11	=11	=11	=11	=11	=11	=11
!	!	!	!LO:LB:g=original	!	!LO:DY:a	!LO:LB:g=original	!	!LO:DY:a	!LO:LB:g=original	!	!
2r	.	.	2B\	Chri-	p	4.g\	Chri-	p	2r	.	.
.	.	.	.	.	.	8d\	.	.	.	.	.
4r	.	.	4B\	-ste	.	4d\	-ste	.	4r	.	.
!	!	!LO:DY:a:t=pia	!	!	!	!	!	!	!	!	!LO:DY:a
4G\	e-	p	8c\L	e-	.	8e\L	e-	.	4b\	e-	p
.	.	.	8d\J	.	.	8f\J	.	.	.	.	.
=12	=12	=12	=12	=12	=12	=12	=12	=12	=12	=12	=12
!LO:LB:g=original	!	!	!	!	!	!	!	!	!	!	!
8B\L	-lei-	.	2d\	-lei-	.	2f\	-lei-	.	8dd\L	-lei-	.
8G\	.	.	.	.	.	.	.	.	8b\	.	.
8A\	.	.	.	.	.	.	.	.	8cc\	.	.
8B\J	.	.	.	.	.	.	.	.	8dd\J	.	.
4c\	-son	.	4c\	-son	.	4e\	-son	.	4ee\	-son	.
4r	.	.	4r	.	.	4r	.	.	4r	.	.
=13	=13	=13	=13	=13	=13	=13	=13	=13	=13	=13	=13
2r	.	.	2c#X\	Chri-	.	4.a\	Chri-	.	4.ee\	Chri-	.
.	.	.	.	.	.	8e\	.	.	8a\	.	.
4r	.	.	4c#\	-ste	.	4e\	-ste	.	4a\	-ste	.
4A\	e-	.	8d\L	e-	.	8f#X\L	e-	.	4cc#X\	e-	.
.	.	.	8e\J	.	.	8g\J	.	.	.	.	.
=14	=14	=14	=14	=14	=14	=14	=14	=14	=14	=14	=14
8c#X\L	-lei-	.	2e\	-lei-	.	2g\	-lei-	.	8ee\L	-lei-	.
8A\	.	.	.	.	.	.	.	.	8cc\	.	.
8B\	.	.	.	.	.	.	.	.	8dd\	.	.
8c#\J	.	.	.	.	.	.	.	.	8ee\J	.	.
4d\	-son	.	4d\	-son	.	4f#X\	-son	.	4dd\	-son	.
4F#X\	Chri-	.	4d\	Chri-	.	4a\	Chri-	.	4ccn\	e-	.
=15	=15	=15	=15	=15	=15	=15	=15	=15	=15	=15	=15
4G\	-ste	.	4d\	-ste	.	4b\	-ste	.	4g\	-lei-	.
4E\	e-	.	8e\L	e-	.	8cc\L	e-	.	4cc\	.	.
.	.	.	8c\J	.	.	8a\J	.	.	.	.	.
2D\	-lei-	.	4B\	-lei-	.	4g\	-lei-	.	2dd\	.	.
.	.	.	8c\L	.	.	8a\L	.	.	.	.	.
.	.	.	8A\J	.	.	8f#X\J	.	.	.	.	.
=16	=16	=16	=16	=16	=16	=16	=16	=16	=16	=16	=16
!	!	!LO:DY:a:t=fo	!	!	!	!	!	!	!	!	!
4GG/	-son	f	2B\	-son	.	2g\	-son	.	4dd\	-son	.
!	!	!	!	!	!	!	!	!	!	!	!LO:DY:t=for
8d\	Ky-	.	.	.	.	.	.	.	8ffn\	Ky-	f
8c\	-ri-	.	.	.	.	.	.	.	8ee\	-ri-	.
8B\	-e	.	2r	.	.	2r	.	.	8dd\	-e	.
8A\	e-	.	.	.	.	.	.	.	8cc\ 8ff	e-	.
!	!	!	!	!	!	!	!	!	!LO:LB:g=original	!	!
8G\L	-lei-	.	.	.	.	.	.	.	8ee\L	-lei-	.
8F\J	.	.	.	.	.	.	.	.	8dd\J	.	.
=17	=17	=17	=17	=17	=17	=17	=17	=17	=17	=17	=17
!LO:LB:g=original	!	!	!LO:LB:g=original	!	!	!LO:LB:g=original	!	!	!	!	!
4E\	-son	.	4r	.	.	4r	.	.	4cc\	-son	.
!	!	!	!	!	!LO:DY:a:t=for	!	!	!LO:DY:b:t=fo	!	!	!
4r	.	.	8e\	Ky-	f	8g\	Ky-	f	4r	.	.
.	.	.	8d\	-ri-	.	8f\	-ri-	.	.	.	.
2r	.	.	8c\	-e	.	8e\	-e	.	2r	.	.
.	.	.	8B-X\	e-	.	8d\	e-	.	.	.	.
.	.	.	8A/L	-lei-	.	8c/L	-lei-	.	.	.	.
.	.	.	8G/J	.	.	8B-X/J	.	.	.	.	.
=18	=18	=18	=18	=18	=18	=18	=18	=18	=18	=18	=18
4r	.	.	4F/	-son	.	4A/	-son	.	4r	.	.
8F\	Ky-	.	4r	.	.	4r	.	.	8a\	Ky-	.
8G\	-ri-	.	.	.	.	.	.	.	8b-X\	-ri-	.
8A\	-e	.	2r	.	.	2r	.	.	8cc\	-e	.
8G\	e-	.	.	.	.	.	.	.	8b-\	e-	.
8F#X\L	-lei-	.	.	.	.	.	.	.	8a\L	-lei-	.
8A\J	.	.	.	.	.	.	.	.	8cc\J	.	.
=19	=19	=19	=19	=19	=19	=19	=19	=19	=19	=19	=19
2G\	-son	.	2r	.	.	2r	.	.	2bn\	-son	.
4.G\	Ky-	.	4.d\	Ky-	.	4.g\	Ky-	.	4.b\	Ky-	.
8G\	-ri-	.	8d\	-ri-	.	8g\	-ri-	.	8b\	-ri-	.
=20	=20	=20	=20	=20	=20	=20	=20	=20	=20	=20	=20
2A\	-e	.	2d\	-e	.	2f#X\	-e	.	2cc\	-e	.
2B\	e-	.	2d\	e-	.	2fn\	e-	.	2g/	e-	.
=21	=21	=21	=21	=21	=21	=21	=21	=21	=21	=21	=21
8c\L	-lei-	.	4c\	-lei-	.	4e\	-lei-	.	4g/	-lei-	.
8G\J	.	.	.	.	.	.	.	.	.	.	.
8E\	-son	.	8e\	-son	.	8g\	-son	.	8cc\	-son	.
8C/	e-	.	8e\	e-	.	8g\	e-	.	8cc\	e-	.
8F\L	-lei-	.	4f\	-lei-	.	4a\	-lei-	.	4dd\	-lei-	.
8D\J	.	.	.	.	.	.	.	.	.	.	.
!LO:TX:t=P:problem=mixed beam	!	!	!	!	!	!	!	!	!	!	!
8G\L	.	.	4d\	.	.	4g\	.	.	4b\	.	.
8GG/J	.	.	.	.	.	.	.	.	.	.	.
=22	=22	=22	=22	=22	=22	=22	=22	=22	=22	=22	=22
!LO:LB:g=original	!	!	!	!	!	!	!	!	!LO:LB:g=original	!	!
4C/	-son	p	2e\	-son	.	4g\	-son	.	4cc\	-son	.
!	!	!	!	!	!	!	!	!	!	!	!LO:DY:b
8d\	Ky-	.	.	.	.	4r	.	.	8ff\	Ky-	p
8c\	-ri-	.	.	.	.	.	.	.	8ee\	-ri-	.
8B\	-e	.	2r	.	.	2r	.	.	8dd\	-e	.
8A\	e-	.	.	.	.	.	.	.	8ff\	e-	.
8G\L	-lei-	.	.	.	.	.	.	.	8ee\L	-lei-	.
8F\J	.	.	.	.	.	.	.	.	8dd\J	.	.
=23	=23	=23	=23	=23	=23	=23	=23	=23	=23	=23	=23
!	!	!	!LO:LB:g=original	!	!	!LO:LB:g=original	!	!LO:DY:a	!	!	!
4E\	-son	.	4r	.	.	4r	.	p	4cc\	-son	.
!	!	!	!	!	!LO:DY:b	!	!	!	!	!	!
4r	.	.	8G/	Ky-	p	8e\	Ky-	.	4r	.	.
.	.	.	8A/	-ri-	.	8f\	-ri-	.	.	.	.
2r	.	.	8B-X\	-e	.	8g\	-e	.	2r	.	.
.	.	.	8d\	e-	.	8b-X\	e-	.	.	.	.
.	.	.	8c\L	-lei-	.	8a\L	-lei-	.	.	.	.
.	.	.	8B-\J	.	.	8g\J	.	.	.	.	.
=24	=24	=24	=24	=24	=24	=24	=24	=24	=24	=24	=24
4r	.	.	4A\	-son	.	4f\	-son	.	4r	.	.
8F\	Ky-	.	4r	.	.	4r	.	.	8a\	Ky-	.
8G\	-ri-	.	.	.	.	.	.	.	8b-X\	-ri-	.
8A\	-e	.	2r	.	.	2r	.	.	8cc\	-e	.
8G\	e-	.	.	.	.	.	.	.	8b-\	e-	.
8F#X\L	-lei-	.	.	.	.	.	.	.	8a\L	-lei-	.
8A\J	.	.	.	.	.	.	.	.	8cc\J	.	.
=25	=25	=25	=25	=25	=25	=25	=25	=25	=25	=25	=25
2G\	-son	.	2r	.	.	2r	.	.	2bn\	-son	.
!	!	!LO:DY:a	!	!	!LO:DY:a	!	!	!LO:DY:a:t=fo	!	!	!LO:DY:a:t=fo
4.G\	Ky-	f	4.d\	Ky-	f	4.g\	Ky-	f	4.b\	Ky-	f
8G\	-ri-	.	8d\	-ri-	.	8g\	-ri-	.	8b\	-ri-	.
=26	=26	=26	=26	=26	=26	=26	=26	=26	=26	=26	=26
!	!	!	!	!	!	!	!	!	!LO:LB:g=original	!	!
2A\	-e	.	2d\	-e	.	2f#X\	-e	.	2cc\	-e	.
2B\	e-	.	2d\	e-	.	2fn\	e-	.	2g/	e-	.
=27	=27	=27	=27	=27	=27	=27	=27	=27	=27	=27	=27
!LO:LB:g=original	!	!	!	!	!	!	!	!	!	!	!
8c\L	-lei-	.	4c\	-lei-	.	4e\	-lei-	.	4g/	-lei-	.
8G\J	.	.	.	.	.	.	.	.	.	.	.
8E\	-son	.	8e\	-son	.	8g\	-son	.	8cc\	-son	.
8C/	e-	.	8e\	e-	.	8g\	e-	.	8cc\	e-	.
8F\L	-lei-	.	4f\	-lei-	.	4a\	-lei-	.	4dd\	-lei-	.
8D\J	.	.	.	.	.	.	.	.	.	.	.
!LO:TX:t=P:problem=mixed beam	!	!	!	!	!	!	!	!	!	!	!
8G\L	.	.	4d\	.	.	4g\	.	.	4b\	.	.
8GG/J	.	.	.	.	.	.	.	.	.	.	.
=28	=28	=28	=28	=28	=28	=28	=28	=28	=28	=28	=28
2C/	-son.	.	2e\	-son.	.	2g\	-son	.	2cc\	-son	.
2r	.	.	2r	.	.	2r	.	.	2r	.	.
==	==	==	==	==	==	==	==	==	==	==	==
*-	*-	*-	*-	*-	*-	*-	*-	*-	*-	*-	*-
!!!system-decoration: [(s1,s2,s3,s4)]
!!!RDF**dynam: p = p:
!!!RDF**dynam: f = for.
!!!RDF**kern: > = above
!!!RDF**kern: < = below
!!!ENC: Kamil Watkowski
!!!END: 2021-08-06
